icons/circle/48/distributor-logo-freebsd.svg

<svg xmlns="http://www.w3.org/2000/svg" viewBox="0 0 48 48">
  <defs>
    <linearGradient id="a" x1="1" x2="47" gradientUnits="userSpaceOnUse" gradientTransform="rotate(-90 24 24)">
      <stop stop-color="#333"/>
      <stop offset="1" stop-color="#3d3d3d"/>
    </linearGradient>
    <radialGradient id="b" cx="24" cy="24" r="15" gradientUnits="userSpaceOnUse" gradientTransform="matrix(.93333 0 0 .93333 1.6 1.6)">
      <stop stop-color="#ee1412"/>
      <stop offset="1" stop-color="#cd450f"/>
    </radialGradient>
  </defs>
  <path d="M36.31 5c5.859 4.062 9.688 10.831 9.688 18.5 0 12.426-10.07 22.5-22.5 22.5-7.669 0-14.438-3.828-18.5-9.688a23.24 23.24 0 0 0 3.781 4.969 22.923 22.923 0 0 0 15.469 5.969c12.703 0 23-10.298 23-23a22.92 22.92 0 0 0-5.969-15.469A23.216 23.216 0 0 0 36.31 5zm4.969 3.781A22.911 22.911 0 0 1 47.498 24.5c0 12.703-10.297 23-23 23a22.909 22.909 0 0 1-15.719-6.219C12.939 45.425 18.662 48 24.998 48c12.703 0 23-10.298 23-23 0-6.335-2.575-12.06-6.719-16.219z" opacity=".05"/>
  <path d="M41.28 8.781a22.923 22.923 0 0 1 5.969 15.469c0 12.703-10.297 23-23 23A22.92 22.92 0 0 1 8.78 41.281 22.911 22.911 0 0 0 24.499 47.5c12.703 0 23-10.298 23-23A22.909 22.909 0 0 0 41.28 8.781z" opacity=".1"/>
  <path d="M31.25 2.375C39.865 5.529 46 13.792 46 23.505c0 12.426-10.07 22.5-22.5 22.5-9.708 0-17.971-6.135-21.12-14.75a23 23 0 0 0 44.875-7 23 23 0 0 0-16-21.875z" opacity=".2"/>
  <path d="M24 1c12.703 0 23 10.297 23 23S36.703 47 24 47 1 36.703 1 24 11.297 1 24 1z" fill="url(#a)" transform="translate(.016 .094)"/>
  <path d="M40.03 7.531A22.922 22.922 0 0 1 45.999 23c0 12.703-10.297 23-23 23A22.92 22.92 0 0 1 7.53 40.031C11.708 44.322 17.54 47 23.999 47c12.703 0 23-10.298 23-23 0-6.462-2.677-12.291-6.969-16.469z" opacity=".1"/>
  <path d="M25 11a14 14 0 0 0-7.473 2.166c-2.486-1.15-5.066-1.787-6.225-.275-.863 1.126.249 3.056 1.746 4.852A14 14 0 0 0 11 25a14 14 0 0 0 14 14 14 14 0 0 0 14-14 14 14 0 0 0-2.045-7.262c1.495-1.794 2.605-3.722 1.742-4.848-1.16-1.514-3.748-.873-6.238.281A14 14 0 0 0 25 11" opacity=".1"/>
  <path d="M24 10a14 14 0 0 0-7.473 2.166c-2.487-1.146-5.066-1.787-6.224-.275-.863 1.129.249 3.056 1.747 4.851A14 14 0 0 0 10 24a14 14 0 0 0 14 14 14 14 0 0 0 14-14 14 14 0 0 0-2.045-7.262c1.495-1.794 2.605-3.718 1.742-4.847-1.16-1.515-3.748-.871-6.238.281A14 14 0 0 0 24 10z" fill="url(#b)"/>
</svg>

<svg xmlns="http://www.w3.org/2000/svg" viewBox="0 0 48 48">
 <defs>
  <linearGradient id="linearGradient3764" x1="1" x2="47" gradientUnits="userSpaceOnUse" gradientTransform="matrix(0,-1,1,0,-1.5e-6,47.999998)">
   <stop style="stop-color:#333;stop-opacity:1"/>
   <stop offset="1" style="stop-color:#3d3d3d;stop-opacity:1"/>
  </linearGradient>
  <radialGradient id="radialGradient4202" cx="24" cy="24" r="15" gradientUnits="userSpaceOnUse" gradientTransform="matrix(0.93333327,0,0,0.93333327,1.6000006,1.6000034)">
   <stop style="stop-color:#ee1412;stop-opacity:1"/>
   <stop offset="1" style="stop-color:#cd450f;stop-opacity:1"/>
  </radialGradient>
 </defs>
 <g>
  <path d="m 36.31 5 c 5.859 4.062 9.688 10.831 9.688 18.5 c 0 12.426 -10.07 22.5 -22.5 22.5 c -7.669 0 -14.438 -3.828 -18.5 -9.688 c 1.037 1.822 2.306 3.499 3.781 4.969 c 4.085 3.712 9.514 5.969 15.469 5.969 c 12.703 0 23 -10.298 23 -23 c 0 -5.954 -2.256 -11.384 -5.969 -15.469 c -1.469 -1.475 -3.147 -2.744 -4.969 -3.781 z m 4.969 3.781 c 3.854 4.113 6.219 9.637 6.219 15.719 c 0 12.703 -10.297 23 -23 23 c -6.081 0 -11.606 -2.364 -15.719 -6.219 c 4.16 4.144 9.883 6.719 16.219 6.719 c 12.703 0 23 -10.298 23 -23 c 0 -6.335 -2.575 -12.06 -6.719 -16.219 z" style="opacity:0.05"/>
  <path d="m 41.28 8.781 c 3.712 4.085 5.969 9.514 5.969 15.469 c 0 12.703 -10.297 23 -23 23 c -5.954 0 -11.384 -2.256 -15.469 -5.969 c 4.113 3.854 9.637 6.219 15.719 6.219 c 12.703 0 23 -10.298 23 -23 c 0 -6.081 -2.364 -11.606 -6.219 -15.719 z" style="opacity:0.1"/>
  <path d="m 31.25 2.375 c 8.615 3.154 14.75 11.417 14.75 21.13 c 0 12.426 -10.07 22.5 -22.5 22.5 c -9.708 0 -17.971 -6.135 -21.12 -14.75 a 23 23 0 0 0 44.875 -7 a 23 23 0 0 0 -16 -21.875 z" style="opacity:0.2"/>
 </g>
 <g transform="translate(0.015625,0.09375)">
  <path d="M 24,1 C 36.703,1 47,11.297 47,24 47,36.703 36.703,47 24,47 11.297,47 1,36.703 1,24 1,11.297 11.297,1 24,1 Z" style="fill:url(#linearGradient3764);fill-opacity:1"/>
 </g>
 <g>
  <path d="m 40.03 7.531 c 3.712 4.084 5.969 9.514 5.969 15.469 0 12.703 -10.297 23 -23 23 c -5.954 0 -11.384 -2.256 -15.469 -5.969 4.178 4.291 10.01 6.969 16.469 6.969 c 12.703 0 23 -10.298 23 -23 0 -6.462 -2.677 -12.291 -6.969 -16.469 z" style="opacity:0.1"/>
 </g>
 <path d="m 25 11 a 14 14 0 0 0 -7.473 2.166 c -2.486 -1.15 -5.066 -1.787 -6.225 -0.275 -0.863 1.126 0.249 3.056 1.746 4.852 A 14 14 0 0 0 11 25 14 14 0 0 0 25 39 14 14 0 0 0 39 25 14 14 0 0 0 36.955 17.738 c 1.495 -1.794 2.605 -3.722 1.742 -4.848 -1.16 -1.514 -3.748 -0.873 -6.238 0.281 A 14 14 0 0 0 25 11" style="fill:#000;opacity:0.1;fill-opacity:1;stroke:none"/>
 <path d="M 24 10 A 14 14 0 0 0 16.527 12.166 C 14.04 11.02 11.461 10.379 10.303 11.891 C 9.44 13.02 10.552 14.947 12.05 16.742 A 14 14 0 0 0 10 24 A 14 14 0 0 0 24 38 A 14 14 0 0 0 38 24 A 14 14 0 0 0 35.955 16.738 C 37.45 14.944 38.56 13.02 37.697 11.891 C 36.537 10.376 33.949 11.02 31.459 12.172 A 14 14 0 0 0 24 10 z" style="fill:url(#radialGradient4202);opacity:1;fill-opacity:1;stroke:none"/>
</svg>
